X: 18
T:Greencastle Hornpipe
% Nottingham Music Database
S:John Jones
M:4/4
L:1/8
R:Hornpipe
K:G
dc|"G"BGDG BGDG|"G"g/3a/3g/3fg "C"e2dc|"G"BGDG BGDG|"Am"dcB/2c3/2 "D7"A2dc|
"G"BGDG BGDG|"G" g/3a/3g/3fg "C"e2dc|"G"Bdfe "D7"dcAF|"G"G2B2 G2:|:
ga|"Em"bagf efga|"Em"bagf e2fg|"D"agfe defg|"D"agfe "D7"d2 d/3e/3f/3|
"G"gfgd "C"e2"G"d2|"Am"cBAB "D7"cdef|"G"gfgd "D7"ecAF|"G"G2B2 G2:|


